assets/features/payment-flow/SCB ธนาคารไทยพาณิชย์.svg

<svg width="200" height="200" viewBox="0 0 200 200" fill="none" xmlns="http://www.w3.org/2000/svg">
<rect width="200" height="200" rx="40" fill="#462279"/>
<path d="M150 136.916L136.354 83.2644L100 50L63.6196 83L50 136.651L75.922 149H96.5227V130.49C96.5227 130.49 58.5353 150.613 68.4405 105.529C71.6544 90.5096 89.3046 70.6514 99.1834 65.0192C99.4468 64.7548 99.7102 64.7548 100 64.4904C109.879 69.3293 128.346 89.9808 131.823 105.529C141.702 150.613 103.741 130.49 103.741 130.49V149H124.315L150 136.916Z" fill="#FEAC00"/>
</svg>

<svg xmlns="http://www.w3.org/2000/svg" width="200" height="200" fill="none" viewBox="0 0 200 200"><rect width="200" height="200" fill="#462279" rx="40"/><path fill="#feac00" d="m150 136.916-13.646-53.652L100 50 63.62 83 50 136.651 75.922 149h20.6v-18.51s-37.987 20.123-28.082-24.961c3.214-15.02 20.865-34.878 30.743-40.51.264-.264.527-.264.817-.529 9.879 4.84 28.346 25.49 31.823 41.039 9.879 45.084-28.082 24.961-28.082 24.961V149h20.574z"/></svg>
